X:64
T:Glal\aa{}ten
R:Polska
O:Sweden
M:3/4
C:e. Pekkos Helmer
A:Dalarna
K:A
e|\
a2 e/f/e/d/ c>e|a>(a a)g/a/ b>g|\
a2 e/f/e/d/ c>A|B2 B3e|\
a2 e/f/e/d/ c>e|a>(a a)g/a/ b>g|\
a2 e/f/e/d/ c>A|B<G A3::\
c|\
d>f e>d c>A|BA/G/ A2 B>c|d>f e>d c>A|B2 B3c|\
d>f e>d c>A|BA/G/ A2 B>c|d>f e>d c>e|\
a>(a a)g/a/ b>g|a2 e/f/e/d/ c>A|B<G A3:|
